X: 22
T:Father O'Flynn
M:6/8
L:1/8
R:Double Jig
K:D
A[|:dAF DFA|ded cBA|dcd efg|fdf ecA|!
dAF DFA|ded cBA|dcd efg|1fdd d2A:|2fdd d2e|!
|:fdf fga|ecA ABc|dcd Bed|cAA AB=c|!
BGB Bcd|AFD DFA|dcd efg|1fdd d2g:|2fdd d2A|]!
